X: 06077
T: PHIL CUNNINGHAM'S REEL
C: Bob McQuillen 2 June 82
B: Bob's Note Book 6 #77
%R: reel
Z: 2021 John Chambers <jc:trillian.mit.edu>
M: C
L: 1/8
K: Em
GF \
| EGGA BGGA | Bdeg dBGF | EGGA BGGA | BedB e2ef |\
| geeg edBA | Bdeg dBAB | GEGA Bede | Beed e2 :|
|: ef \
| geea gede | Beed edef | geea bage | dedB A2GA |\
| Bdeg edBA | GEAG EDGA | BedB deBA | GEED E2 :|
%%begintext align
%% Never in my
%% live have I heard a piano accordion played
%% the way Phil Cunningham does it. He really
%% _is_ a wizard on that box, and helps to produce
%% great music with the group, _Silly_Wizard_.
%%endtext

%%sep 1 1 500

%%sep 1 1 500

